main-pages/gulp-scss-starter/dist/img/default/offer/services12.svg

<svg width="21" height="24" viewBox="0 0 21 24" fill="none" xmlns="http://www.w3.org/2000/svg">
<path fill-rule="evenodd" clip-rule="evenodd" d="M1 4.36414V2.6361H9.9802V11.4785V11.4882C10.1415 11.4555 10.3084 11.4383 10.4794 11.4383C10.6509 11.4383 10.8184 11.4556 10.9802 11.4886V11.4785V2.6361H19.9604V4.36438H20.9604V2.1361V1.6361V0.000238419H19.9604V1.6361H10.4802H1V0H0V4.36414H1ZM10.9802 16.3781C10.8184 16.4111 10.6509 16.4284 10.4794 16.4284C10.3084 16.4284 10.1415 16.4112 9.9802 16.3784V21.1416H1V19.4296H0V23.9133H1V22.1416H10.4802H10.9802H19.9604V23.9133H20.9604V21.6416V21.1416V19.4296H19.9604V21.1416H10.9802V16.3781Z" fill="#616161"/>
<circle cx="10.3758" cy="2.19551" r="1.55941" fill="#616161"/>
<circle cx="10.3763" cy="21.3146" r="1.55941" fill="#616161"/>
<path fill-rule="evenodd" clip-rule="evenodd" d="M10.4805 17.2593C12.3178 17.2593 13.8073 15.7699 13.8073 13.9326C13.8073 12.0953 12.3178 10.6058 10.4805 10.6058C8.64324 10.6058 7.15381 12.0953 7.15381 13.9326C7.15381 15.7699 8.64324 17.2593 10.4805 17.2593ZM10.4792 16.4273C11.8571 16.4273 12.9742 15.3102 12.9742 13.9322C12.9742 12.5543 11.8571 11.4372 10.4792 11.4372C9.10119 11.4372 7.98412 12.5543 7.98412 13.9322C7.98412 15.3102 9.10119 16.4273 10.4792 16.4273Z" fill="#616161"/>
</svg>

<svg width="21" height="24" viewBox="0 0 21 24" fill="none" xmlns="http://www.w3.org/2000/svg"><path fill-rule="evenodd" clip-rule="evenodd" d="M1 4.364V2.636h8.98v8.853a2.51 2.51 0 011 0V2.636h8.98v1.728h1V0h-1v1.636H1V0H0v4.364h1zm9.98 12.014a2.504 2.504 0 01-1 0v4.764H1V19.43H0v4.483h1v-1.771h18.96v1.771h1V19.43h-1v1.712h-8.98v-4.764z" fill="#616161"/><circle cx="10.376" cy="2.196" r="1.559" fill="#616161"/><circle cx="10.376" cy="21.315" r="1.559" fill="#616161"/><path fill-rule="evenodd" clip-rule="evenodd" d="M10.48 17.26a3.327 3.327 0 100-6.654 3.327 3.327 0 000 6.653zm0-.833a2.495 2.495 0 10-.001-4.99 2.495 2.495 0 000 4.99z" fill="#616161"/></svg>
